X:1
T:Y Delyn
C:Trad
L:1/8
Q:1/8=130
M:6/8
I:linebreak $
K:A
V:1 treble 
V:1
 f | e2 c A2 f | e2 d B2 d | cBA edc | cBB B2 f | e2 c A2 f | e2 d B2 d |{d} cBA{c} BAG | AAA A2 |] %9
 e |$ B2 B B2 e | c2 c c2 e | edd dcc | cBB B2 e | B2 B B2 e | c2 c c2 e | af^d Bcd | eBg e2 f | %18
 e2 c A2 f |$ e2 d B2 d | cBA edc | cBB B2 f | e2 c A2 f | e2 d B2 d |{d} cBA{c} BAG | AAA A2 || %26
